X:1
T:Title
%%score ( 1 2 ) { 3 | 4 }
L:1/8
M:4/4
K:G
V:1 treble nm="Grand Piano, Piano"
V:2 treble 
V:3 bass nm="Grand Piano, Piano"
V:4 bass 
V:1
 z4 z2[Q:1/4=100] [DG]2 | [DG]2 [DF]2 [B,E]2 [B,D]2 |[M:9/8] [B,G]2 [DA]- [DA] [DB]2- [DB] [DB]2 | %3
[M:4/4] [DB]2 [GB]2 [FA]2 G2 |[M:7/8] [Gc]2 [GB]2 [FA]3 |[M:1/4] G2 | %6
[M:4/4] [FA]2 [GB]2 [FA]2 [DG]2 |[M:9/8] E2 [DF]- [DF] [DG]2- [DG] [Dd]2 |[M:4/4] z4 z2 c2 | %9
[M:7/8] [GB]2 [FA]2 [DG]3 |[M:4/4] [EG]8 | [DG]8 |] %12
V:2
 x8 | x8 |[M:9/8] x9 |[M:4/4] x8 |[M:7/8] x7 |[M:1/4] x2 |[M:4/4] x8 |[M:9/8] x9 | %8
[M:4/4] [DB]2 G2 [FA]2 EF |[M:7/8] x7 |[M:4/4] x8 | x8 |] %12
V:3
 z4 z2 B,2 | B,2 A,2 G,2 F,2 |[M:9/8] G,2 F,- F, G,2- G, G,2 |[M:4/4] B,2[K:treble] D2 C2 B,2 | %4
[M:7/8] E2 D2 D3 |[M:1/4] B,2 |[M:4/4] D2 D2 D2 D2 |[M:9/8] C[K:bass]B,A,- A, B,2- B, B,2 | %8
[M:4/4] G,2 B,2[K:treble] D2 E2 |[M:7/8] D2 D C B,3 |[M:4/4] C8 | B,8 |] %12
V:4
 z4 z2 G,2 | G,2 D,2 E,2 B,,2 |[M:9/8] E,2 D,- D, G,,2- G,, z z |[M:4/4] G,2 G,2 D,2 E,2 | %4
[M:7/8] C,2 G,,2 D,3 |[M:1/4] E,2 |[M:4/4] D,2 G,2 D,2 B,,2 |[M:9/8] C,2 D,- D, G,,2- G,, G,2 | %8
[M:4/4] z2 E,2 D,2 A,,2 |[M:7/8] B,,C, D,2 G,,3 |[M:4/4] C,8 | [G,,G,]8 |] %12

